icon-themes/breeze_svg/cmd/lc_cleararrows.svg

<svg viewBox="0 0 24 24" xmlns="http://www.w3.org/2000/svg"><path d="m15.578125 3 .5.859375-9.5976562 5.5c-.4821313-.4099795-1.1721887-.4741345-1.7226563-.1601562-.3153596.1810595-.5535007.4698828-.6699219.8125002-.2439299.676318.033817 1.429029.6601563 1.789062.5504676.313978 1.2405252.249823 1.7226562-.160156l7.0551349 4.10748.735881-.724667-6.9160159-4.025391h10.6542969v.992187l2-1.488281-2-1.4882811v.9921871h-10.6503906l9.2285156-5.287109.5.859375.980469-2.28125zm-10.078125 7c.2761424 0 .5.223858.5.5s-.2238576.5-.5.5-.5-.223858-.5-.5.2238576-.5.5-.5z" fill="#4d4d4d"/><path d="m15.712891 15-.712891.701172 1.794922 1.798828-1.794922 1.798828.712891.701172 1.787109-1.792969 1.789062 1.792969.710938-.701172-1.794922-1.798828 1.794922-1.798828-.710938-.701172-1.789062 1.792969z" fill="#da4453"/></svg>

<svg viewBox="0 0 24 24" xmlns="http://www.w3.org/2000/svg">
  <path
     style="fill:#4d4d4d"
     d="m 15.578125,3 0.5,0.859375 -9.5976562,5.5 C 5.9983375,8.9493955 5.3082801,8.8852405 4.7578125,9.1992188 4.4424529,9.3802783 4.2043118,9.6691016 4.0878906,10.011719 c -0.2439299,0.676318 0.033817,1.429029 0.6601563,1.789062 0.5504676,0.313978 1.2405252,0.249823 1.7226562,-0.160156 l 7.0551349,4.10748 0.735881,-0.724667 -6.9160159,-4.025391 H 18 v 0.992187 L 20,10.501953 18,9.0136719 V 10.005859 H 7.3496094 l 9.2285156,-5.287109 0.5,0.859375 0.980469,-2.28125 z M 5.5,10 C 5.7761424,10 6,10.223858 6,10.5 6,10.776142 5.7761424,11 5.5,11 5.2238576,11 5,10.776142 5,10.5 5,10.223858 5.2238576,10 5.5,10 Z"
     />
  <path
     style="fill:#da4453"
     d="M 15.712891,15 15,15.701172 16.794922,17.5 15,19.298828 15.712891,20 17.5,18.207031 19.289062,20 20,19.298828 18.205078,17.5 20,15.701172 19.289062,15 17.5,16.792969 Z"
     />
</svg>
